; generated by PrusaSlicer 2.3.0+linux-x64-GTK3 on 2021-12-24 at 00:55:38 UTC

; 

; external perimeters extrusion width = 0.45mm
; perimeters extrusion width = 0.45mm
; infill extrusion width = 0.45mm
; solid infill extrusion width = 0.45mm
; top infill extrusion width = 0.40mm
; first layer extrusion width = 0.42mm

M73 P0 R118
M73 Q0 S118
M201 X1000 Y1000 Z200 E5000 ; sets maximum accelerations, mm/sec^2
M203 X200 Y200 Z12 E120 ; sets maximum feedrates, mm/sec
M204 P1250 R1250 T1250 ; sets acceleration (P, T) and retract acceleration (R), mm/sec^2
M205 X8.00 Y8.00 Z0.40 E4.50 ; sets the jerk limits, mm/sec
M205 S0 T0 ; sets the minimum extruding and travel feed rate, mm/sec
M107
;TYPE:Custom
M862.3 P "MK3S" ; printer model check
M862.1 P0.4 ; nozzle diameter check
M115 U3.9.3 ; tell printer latest fw version
G90 ; use absolute coordinates
M83 ; extruder relative mode
M104 S215 ; set extruder temp
M140 S60 ; set bed temp
M190 S60 ; wait for bed temp
M109 S215 ; wait for extruder temp
G28 W ; home all without mesh bed level
G80 ; mesh bed leveling
G1 Y-3.0 F1000.0 ; go outside print area
G92 E0.0
G1 X60.0 E9.0 F1000.0 ; intro line
G1 X100.0 E12.5 F1000.0 ; intro line
G92 E0.0
M221 S95

; Don't change E values below. Excessive value can damage the printer.

M907 E538 ; set extruder motor current
G21 ; set units to millimeters
G90 ; use absolute coordinates
M83 ; use relative distances for extrusion
M900 K0.05 ; Filament gcode LA 1.5
M900 K30 ; Filament gcode LA 1.0
;LAYER_CHANGE
;Z:0.2
;HEIGHT:0.2
;BEFORE_LAYER_CHANGE
G92 E0.0
;0.2


G1 E-0.80000 F2100.000
G1 Z0.400 F10800.000
;AFTER_LAYER_CHANGE
;0.2
G1 X54.168 Y50.324
G1 Z0.200
G1 E0.80000 F2100.000
M204 S1000
;TYPE:Skirt
;WIDTH:0.42
G1 F1200.000
G1 X54.451 Y49.710 E0.02119
G1 X54.824 Y49.264 E0.01823
G1 X55.293 Y48.922 E0.01823
G1 X55.832 Y48.704 E0.01823
G1 X56.412 Y48.623 E0.01835
G1 X127.651 Y48.623 E2.23365
G1 X128.165 Y48.680 E0.01621
G1 X128.654 Y48.847 E0.01621
G1 X129.093 Y49.113 E0.01609
G1 X129.467 Y49.470 E0.01621
G1 X169.664 Y98.399 E1.98546
G1 X169.979 Y98.901 E0.01858
G1 X170.144 Y99.383 E0.01597
G1 X170.202 Y99.889 E0.01597
G1 X170.273 Y138.012 E1.19532
G1 X170.175 Y138.681 E0.02119
G1 X169.893 Y139.295 E0.02119
G1 X169.447 Y139.807 E0.02130
G1 X168.870 Y140.174 E0.02142
G1 X129.220 Y157.594 E1.35789
M73 Q0 S117
G1 X127.347 Y158.382 E0.06374
G1 X123.613 Y159.656 E0.12368
G1 X119.614 Y160.617 E0.12897
G1 X115.602 Y161.186 E0.12706
G1 X111.561 Y161.377 E0.12682
G1 X56.432 Y161.377 E1.72854
G1 X55.767 Y161.278 E0.02107
G1 X55.157 Y160.997 E0.02107
G1 X54.706 Y160.618 E0.01846
G1 X54.363 Y160.144 E0.01835
G1 X54.146 Y159.596 E0.01846
G1 X54.070 Y159.016 E0.01835
G1 X54.070 Y50.992 E3.38701
G1 X54.160 Y50.383 E0.01931
;WIPE_START
G1 F8640.000
G1 X54.451 Y49.710 E-0.16936
G1 X54.824 Y49.264 E-0.13423
G1 X55.293 Y48.922 E-0.13423
G1 X55.832 Y48.704 E-0.13423
G1 X56.412 Y48.623 E-0.13510
G1 X56.641 Y48.623 E-0.05285
;WIPE_END
G1 E-0.04000 F2100.000
G1 Z0.600 F10800.000
G1 X128.134 Y46.290
G1 Z0.200
G1 E0.80000 F2100.000
G1 F1200.000
G1 X55.938 Y46.287 E2.26365
G1 X54.715 Y46.585 E0.03948
G1 X53.898 Y46.994 E0.02862
G1 X52.887 Y47.892 E0.04242
G1 X52.383 Y48.530 E0.02550
G1 X51.734 Y50.453 E0.06363
G1 X51.734 Y159.510 E3.41939
G1 X52.032 Y160.733 E0.03947
G1 X52.441 Y161.549 E0.02862
G1 X53.339 Y162.561 E0.04242
G1 X53.978 Y163.065 E0.02550
G1 X55.900 Y163.713 E0.06363
G1 X111.579 Y163.713 E1.74575
G1 X113.708 Y163.662 E0.06680
G1 X115.841 Y163.510 E0.06704
G1 X117.955 Y163.260 E0.06675
G1 X120.065 Y162.909 E0.06705
G1 X122.182 Y162.454 E0.06789
G1 X124.205 Y161.918 E0.06564
G1 X126.202 Y161.290 E0.06564
G1 X128.252 Y160.537 E0.06847
G1 X130.272 Y159.683 E0.06875
G1 X132.151 Y158.783 E0.06535
G1 X133.988 Y157.797 E0.06534
G1 X135.883 Y156.661 E0.06928
G1 X138.003 Y155.251 E0.07984
G1 X139.004 Y154.090 E0.04805
G1 X139.319 Y153.363 E0.02485
G1 X139.501 Y152.871 F10800.000
G1 F1200.000
G1 X139.687 Y151.756 E0.03545
G1 X139.615 Y150.757 E0.03141
G1 X139.218 Y149.556 E0.03965
G1 X134.511 Y142.782 E0.25865
G1 X162.586 Y142.729 E0.88027
G1 X163.527 Y142.727 F10800.000
G1 F1200.000
G1 X168.343 Y142.718 E0.15101
G1 X169.356 Y142.524 E0.03232
G1 X170.278 Y142.122 E0.03154
G1 X171.832 Y140.637 E0.06741
G1 X171.976 Y140.446 E0.00749
G1 X172.406 Y139.492 E0.03279
G1 X172.611 Y138.435 E0.03376
G1 X172.537 Y99.441 E1.22265
G1 X172.192 Y98.043 E0.04513
G1 X171.546 Y96.969 E0.03930
G1 X170.676 Y96.118 E0.03816
G1 X169.628 Y95.514 E0.03793
G1 X168.504 Y95.219 E0.03644
G1 X167.295 Y95.219 E0.03791
G1 X166.807 Y95.219 F10800.000
G1 F1200.000
G1 X153.928 Y95.219 E0.40380
G1 X153.875 Y81.243 E0.43820
G1 X153.575 Y80.120 E0.03644
G1 X152.967 Y79.075 E0.03793
G1 X152.113 Y78.208 E0.03816
G1 X151.036 Y77.566 E0.03930
G1 X149.638 Y77.226 E0.04513
G1 X132.361 Y77.259 E0.54171
G1 X132.349 Y53.276 E0.75196
G1 X132.349 Y52.682 F10800.000
G1 F1200.000
G1 X132.348 Y50.392 E0.07179
G1 X131.976 Y49.052 E0.04359
G1 X131.210 Y47.889 E0.04369
G1 X129.990 Y46.865 E0.04992
G1 X129.082 Y46.474 E0.03101
G1 X128.134 Y46.290 E0.03029
;WIPE_START
G1 F8640.000
G1 X129.082 Y46.474 E-0.22306
G1 X129.990 Y46.865 E-0.22835
G1 X131.014 Y47.724 E-0.30859
;WIPE_END
G1 E-0.04000 F2100.000
G1 Z0.600 F10800.000
G1 X131.978 Y52.230
G1 Z0.200
G1 E0.80000 F2100.000
G1 F1200.000
G1 X131.977 Y50.466 E0.05531
G1 X131.644 Y49.232 E0.04007
G1 X130.944 Y48.158 E0.04020
G1 X129.814 Y47.199 E0.04647
G1 X128.988 Y46.840 E0.02823
G1 X128.115 Y46.667 E0.02791
G1 X55.961 Y46.664 E2.26233
M73 P0 R117
G1 X54.827 Y46.945 E0.03664
G1 X54.092 Y47.318 E0.02585
G1 X53.151 Y48.161 E0.03960
G1 X52.699 Y48.737 E0.02295
G1 X52.111 Y50.484 E0.05778
G1 X52.111 Y159.486 E3.41769
G1 X52.393 Y160.620 E0.03664
G1 X52.766 Y161.356 E0.02585
G1 X53.609 Y162.296 E0.03960
G1 X54.185 Y162.748 E0.02295
G1 X55.931 Y163.336 E0.05778
G1 X111.576 Y163.336 E1.74472
G1 X113.686 Y163.286 E0.06617
G1 X115.801 Y163.135 E0.06648
G1 X117.898 Y162.887 E0.06620
G1 X119.990 Y162.540 E0.06649
G1 X122.089 Y162.088 E0.06734
G1 X124.096 Y161.557 E0.06509
G1 X126.085 Y160.931 E0.06536
G1 X128.118 Y160.185 E0.06791
G1 X130.113 Y159.341 E0.06791
G1 X131.985 Y158.444 E0.06507
G1 X133.805 Y157.467 E0.06480
G1 X135.678 Y156.345 E0.06844
G1 X137.772 Y154.952 E0.07887
G1 X138.698 Y153.868 E0.04468
G1 X138.820 Y153.582 E0.00973
G1 X139.034 Y153.076 F10800.000
G1 F1200.000
G1 X139.125 Y152.863 E0.00727
G1 X139.311 Y151.717 E0.03638
G1 X139.250 Y150.853 E0.02718
G1 X138.869 Y149.701 E0.03805
G1 X133.789 Y142.406 E0.27871
G1 X163.448 Y142.350 E0.92993
G1 X164.389 Y142.348 F10800.000
G1 F1200.000
G1 X168.325 Y142.341 E0.12341
G1 X169.225 Y142.170 E0.02871
G1 X170.096 Y141.790 E0.02980
G1 X171.558 Y140.377 E0.06375
G1 X171.660 Y140.239 E0.00539
G1 X172.053 Y139.359 E0.03021
G1 X172.233 Y138.418 E0.03005
G1 X172.160 Y99.464 E1.22139
M73 Q1 S117
G1 X171.853 Y98.212 E0.04042
G1 X171.263 Y97.220 E0.03618
G1 X170.464 Y96.431 E0.03519
M73 P1 R117
G1 X169.507 Y95.872 E0.03477
G1 X168.432 Y95.590 E0.03485
G1 X167.600 Y95.590 E0.02609
G1 X167.112 Y95.590 F10800.000
G1 F1200.000
G1 X153.552 Y95.596 E0.42515
G1 X153.504 Y81.317 E0.44772
G1 X153.218 Y80.243 E0.03485
G1 X152.655 Y79.288 E0.03477
G1 X151.863 Y78.492 E0.03519
G1 X150.869 Y77.905 E0.03618
G1 X149.616 Y77.603 E0.04042
G1 X131.984 Y77.636 E0.55285
G1 X131.978 Y52.824 E0.77797
G1 X131.607 Y52.372 F10800.000
G1 F1200.000
G1 X131.607 Y78.014 E0.80399
G1 X149.595 Y77.980 E0.56401
M73 Q1 S116
G1 X150.704 Y78.245 E0.03576
G1 X151.615 Y78.777 E0.03307
G1 X152.342 Y79.500 E0.03217
G1 X152.879 Y80.411 E0.03315
G1 X153.133 Y81.388 E0.03165
G1 X153.176 Y95.974 E0.45732
G1 X167.417 Y95.962 E0.44651
G1 X167.905 Y95.961 F10800.000
G1 F1200.000
G1 X168.362 Y95.961 E0.01433
G1 X169.340 Y96.211 E0.03165
G1 X170.253 Y96.745 E0.03315
G1 X170.979 Y97.469 E0.03217
G1 X171.514 Y98.378 E0.03307
G1 X171.783 Y99.487 E0.03576
G1 X171.856 Y138.400 E1.22011
G1 X171.687 Y139.265 E0.02765
G1 X171.343 Y140.035 E0.02645
G1 X171.281 Y140.120 E0.00329
G1 X169.912 Y141.459 E0.06005
G1 X169.131 Y141.804 E0.02675
G1 X168.306 Y141.964 E0.02635
G1 X165.251 Y141.970 E0.09579
G1 X164.310 Y141.971 F10800.000
G1 F1200.000
G1 X133.067 Y142.030 E0.97960
G1 X138.519 Y149.845 E0.29877
G1 X138.884 Y150.948 E0.03641
G1 X138.933 Y151.720 E0.02426
G1 X138.768 Y152.739 E0.03238
G1 X138.538 Y153.294 E0.01885
G1 X138.226 Y153.843 F10800.000
G1 F1200.000
G1 X137.541 Y154.653 E0.03323
G1 X135.473 Y156.028 E0.07788
G1 X133.623 Y157.137 E0.06761
G1 X131.810 Y158.110 E0.06452
G1 X129.954 Y158.999 E0.06453
G1 X127.984 Y159.832 E0.06707
G1 X125.967 Y160.573 E0.06735
G1 X123.996 Y161.193 E0.06481
G1 X121.997 Y161.722 E0.06482
G1 X119.915 Y162.170 E0.06678
G1 X117.840 Y162.515 E0.06593
G1 X115.761 Y162.760 E0.06564
G1 X113.664 Y162.909 E0.06593
G1 X111.574 Y162.959 E0.06554
G1 X55.962 Y162.959 E1.74369
G1 X54.391 Y162.431 E0.05197
G1 X53.877 Y162.030 E0.02043
G1 X53.089 Y161.160 E0.03679
G1 X52.753 Y160.506 E0.02308
G1 X52.488 Y159.462 E0.03376
G1 X52.488 Y50.514 E3.41598
G1 X53.017 Y48.943 E0.05197
G1 X53.417 Y48.429 E0.02043
G1 X54.287 Y47.642 E0.03679
G1 X54.941 Y47.305 E0.02308
G1 X55.985 Y47.041 E0.03376
G1 X128.096 Y47.044 E2.26098
G1 X128.893 Y47.205 E0.02550
G1 X129.636 Y47.533 E0.02545
G1 X130.677 Y48.426 E0.04302
G1 X131.310 Y49.410 E0.03669
G1 X131.607 Y50.538 E0.03655
G1 X131.607 Y51.778 E0.03889
G1 X131.230 Y51.913 F10800.000
G1 F1200.000
G1 X131.230 Y78.392 E0.83023
G1 X149.574 Y78.358 E0.57517
G1 X150.540 Y78.586 E0.03115
G1 X151.367 Y79.062 E0.02990
G1 X152.059 Y79.750 E0.03059
G1 X152.540 Y80.577 E0.03000
G1 X152.762 Y81.457 E0.02848
G1 X152.800 Y96.351 E0.46699
G1 X167.722 Y96.333 E0.46787
G1 X168.210 Y96.333 F10800.000
G1 F1200.000
G1 X168.294 Y96.333 E0.00265
G1 X169.176 Y96.552 E0.02848
G1 X170.004 Y97.029 E0.03000
G1 X170.695 Y97.718 E0.03059
G1 X171.174 Y98.543 E0.02990
G1 X171.406 Y99.509 E0.03115
G1 X171.479 Y138.383 E1.21885
G1 X171.333 Y139.132 E0.02395
G1 X171.021 Y139.839 E0.02423
G1 X169.726 Y141.130 E0.05732
G1 X169.036 Y141.438 E0.02369
G1 X168.287 Y141.587 E0.02395
G1 X166.113 Y141.591 E0.06815
G1 X165.172 Y141.593 F10800.000
G1 F1200.000
G1 X132.344 Y141.655 E1.02930
G1 X138.170 Y149.990 E0.31886
G1 X138.518 Y151.042 E0.03475
G1 X138.556 Y151.719 E0.02127
G1 X138.400 Y152.656 E0.02980
G1 X138.083 Y153.429 E0.02619
G1 X137.996 Y153.532 E0.00422
G1 X137.452 Y154.183 F10800.000
G1 F1200.000
G1 X137.309 Y154.354 E0.00697
G1 X135.268 Y155.712 E0.07688
G1 X133.441 Y156.806 E0.06678
G1 X131.643 Y157.772 E0.06397
G1 X129.795 Y158.657 E0.06425
G1 X127.841 Y159.483 E0.06651
G1 X125.850 Y160.214 E0.06651
G1 X123.895 Y160.830 E0.06426
G1 X121.905 Y161.357 E0.06454
G1 X119.840 Y161.801 E0.06623
G1 X117.792 Y162.141 E0.06510
G1 X115.730 Y162.385 E0.06509
G1 X113.650 Y162.532 E0.06537
G1 X111.572 Y162.582 E0.06519
G1 X55.992 Y162.582 E1.74266
G1 X54.596 Y162.113 E0.04619
G1 X54.143 Y161.763 E0.01793
G1 X53.411 Y160.963 E0.03399
G1 X53.112 Y160.389 E0.02030
G1 X52.865 Y159.438 E0.03082
G1 X52.865 Y50.545 E3.41426
M73 P1 R116
G1 X53.334 Y49.149 E0.04619
G1 X53.684 Y48.696 E0.01793
G1 X54.484 Y47.964 E0.03399
G1 X55.058 Y47.665 E0.02030
G1 X56.010 Y47.418 E0.03083
G1 X128.076 Y47.421 E2.25959
G1 X128.796 Y47.570 E0.02304
G1 X129.455 Y47.865 E0.02266
G1 X130.410 Y48.692 E0.03960
G1 X130.954 Y49.537 E0.03149
G1 X131.230 Y50.563 E0.03331
G1 X131.230 Y51.319 E0.02371
G1 X130.852 Y51.454 F10800.000
G1 F1200.000
G1 X130.852 Y78.770 E0.85647
G1 X149.553 Y78.735 E0.58633
G1 X150.379 Y78.928 E0.02660
G1 X151.121 Y79.349 E0.02677
G1 X151.746 Y79.962 E0.02743
G1 X152.200 Y80.742 E0.02831
G1 X152.390 Y81.524 E0.02524
G1 X152.424 Y96.729 E0.47674
G1 X168.027 Y96.705 E0.48924
G1 X168.585 Y96.790 F10800.000
G1 F1200.000
G1 X169.011 Y96.892 E0.01373
G1 X169.794 Y97.343 E0.02831
G1 X170.409 Y97.965 E0.02743
G1 X170.833 Y98.706 E0.02677
G1 X171.029 Y99.531 E0.02660
G1 X171.102 Y138.365 E1.21761
G1 X170.980 Y139.000 E0.02025
G1 X170.697 Y139.639 E0.02191
G1 X169.540 Y140.800 E0.05140
G1 X168.902 Y141.085 E0.02191
G1 X168.268 Y141.210 E0.02025
G1 X166.975 Y141.212 E0.04054
G1 X166.034 Y141.214 F10800.000
G1 F1200.000
G1 X131.620 Y141.279 E1.07902
G1 X137.821 Y150.134 E0.33895
G1 X138.152 Y151.135 E0.03304
G1 X138.178 Y151.715 E0.01820
G1 X138.032 Y152.573 E0.02730
G1 X137.773 Y153.212 E0.02163
G1 X137.231 Y153.868 E0.02668
;WIPE_START
G1 F8640.000
G1 X137.773 Y153.212 E-0.19647
G1 X138.032 Y152.573 E-0.15925
G1 X138.178 Y151.715 E-0.20103
G1 X138.152 Y151.135 E-0.13405
G1 X138.057 Y150.850 E-0.06919
;WIPE_END
G1 E-0.04000 F2100.000
G1 Z0.600 F10800.000
G1 X135.781 Y154.917
G1 Z0.200
G1 E0.80000 F2100.000
G1 F1200.000
G1 X135.062 Y155.395 E0.02705
G1 X133.258 Y156.476 E0.06594
G1 X131.469 Y157.438 E0.06370
G1 X129.636 Y158.315 E0.06370
G1 X127.699 Y159.134 E0.06595
G1 X125.732 Y159.856 E0.06567
G1 X123.786 Y160.469 E0.06399
G1 X121.813 Y160.991 E0.06399
G1 X119.765 Y161.431 E0.06567
G1 X117.734 Y161.768 E0.06455
G1 X115.690 Y162.010 E0.06454
G1 X113.628 Y162.156 E0.06482
G1 X111.570 Y162.205 E0.06456
G1 X56.023 Y162.205 E1.74163
G1 X54.800 Y161.794 E0.04045
G1 X54.408 Y161.495 E0.01546
G1 X53.732 Y160.764 E0.03121
G1 X53.470 Y160.271 E0.01752
G1 X53.242 Y159.413 E0.02783
G1 X53.242 Y50.576 E3.41251
M73 Q1 S115
G1 X53.653 Y49.353 E0.04045
G1 X53.953 Y48.961 E0.01546
G1 X54.683 Y48.285 E0.03121
G1 X55.177 Y48.023 E0.01752
G1 X56.035 Y47.795 E0.02783
G1 X128.057 Y47.798 E2.25821
M73 P2 R116
M73 Q2 S115
G1 X128.661 Y47.923 E0.01933
G1 X129.275 Y48.197 E0.02110
G1 X130.140 Y48.957 E0.03609
G1 X130.620 Y49.714 E0.02809
G1 X130.852 Y50.587 E0.02835
G1 X130.852 Y50.860 E0.00855
G1 X130.475 Y50.995 F10800.000
G1 F1200.000
G1 X130.475 Y79.148 E0.88270
G1 X149.532 Y79.112 E0.59751
G1 X150.217 Y79.269 E0.02203
G1 X150.913 Y79.664 E0.02508
G1 X151.461 Y80.210 E0.02426
G1 X151.858 Y80.904 E0.02508
G1 X152.018 Y81.588 E0.02203
G1 X152.047 Y97.107 E0.48658
G1 X168.166 Y97.077 E0.50539
G1 X168.372 Y97.124 E0.00663
G1 X169.038 Y97.340 F10800.000
G1 F1200.000
G1 X169.547 Y97.629 E0.01835
G1 X170.095 Y98.175 E0.02426
G1 X170.492 Y98.869 E0.02508
G1 X170.652 Y99.553 E0.02203
G1 X170.725 Y138.347 E1.21634
G1 X170.614 Y138.904 E0.01781
G1 X170.368 Y139.452 E0.01885
G1 X169.352 Y140.471 E0.04510
G1 X168.805 Y140.720 E0.01885
G1 X168.248 Y140.833 E0.01781
G1 X167.837 Y140.834 E0.01289
G1 X166.896 Y140.835 F10800.000
G1 F1200.000
G1 X130.897 Y140.903 E1.12873
G1 X137.495 Y150.327 E0.36070
G1 X137.784 Y151.224 E0.02955
G1 X137.801 Y151.707 E0.01515
G1 X137.664 Y152.489 E0.02490
G1 X137.462 Y152.998 E0.01717
G1 X136.844 Y153.758 E0.03071
G1 X135.600 Y154.585 E0.04683
;WIPE_START
G1 F8640.000
G1 X136.844 Y153.758 E-0.34488
G1 X137.462 Y152.998 E-0.22619
G1 X137.664 Y152.489 E-0.12644
G1 X137.710 Y152.222 E-0.06249
;WIPE_END
G1 E-0.04000 F2100.000
G1 Z0.600 F10800.000
G1 X133.329 Y155.995
G1 Z0.200
G1 E0.80000 F2100.000
G1 F1200.000
G1 X131.294 Y157.103 E0.07266
G1 X129.477 Y157.973 E0.06315
G1 X127.564 Y158.782 E0.06512
G1 X125.615 Y159.498 E0.06512
G1 X123.685 Y160.106 E0.06343
G1 X121.721 Y160.625 E0.06371
G1 X119.690 Y161.061 E0.06511
G1 X117.677 Y161.395 E0.06399
G1 X115.650 Y161.635 E0.06398
G1 X113.606 Y161.779 E0.06427
G1 X111.567 Y161.828 E0.06393
G1 X56.054 Y161.828 E1.74060
G1 X55.003 Y161.475 E0.03476
G1 X54.672 Y161.225 E0.01301
G1 X54.052 Y160.562 E0.02845
G1 X53.828 Y160.149 E0.01474
G1 X53.619 Y159.387 E0.02477
G1 X53.619 Y50.606 E3.41074
G1 X53.972 Y49.555 E0.03476
G1 X54.223 Y49.225 E0.01301
G1 X54.885 Y48.604 E0.02845
G1 X55.299 Y48.380 E0.01474
G1 X56.061 Y48.172 E0.02477
G1 X128.037 Y48.176 E2.25676
G1 X128.561 Y48.287 E0.01681
G1 X129.092 Y48.528 E0.01829
G1 X129.869 Y49.221 E0.03263
G1 X130.264 Y49.841 E0.02306
G1 X130.388 Y50.295 E0.01474
G1 X130.053 Y50.481 F10800.000
G1 F1200.000
G1 X130.098 Y50.640 E0.00517
G1 X130.098 Y79.525 E0.90568
G1 X149.512 Y79.489 E0.60871
G1 X150.058 Y79.612 E0.01755
G1 X150.666 Y79.950 E0.02179
G1 X151.176 Y80.458 E0.02257
G1 X151.516 Y81.064 E0.02179
G1 X151.641 Y81.610 E0.01755
G1 X151.671 Y97.485 E0.49775
G1 X168.146 Y97.454 E0.51656
