; generated by PrusaSlicer 2.3.0+linux-x64-GTK3 on 2021-12-30 at 23:18:58 UTC

; 

; external perimeters extrusion width = 0.60mm
; perimeters extrusion width = 0.50mm
; infill extrusion width = 0.50mm
; solid infill extrusion width = 0.50mm
; top infill extrusion width = 0.45mm
; first layer extrusion width = 0.42mm

M73 P0 R78
M73 Q0 S79
M201 X1000 Y1000 Z200 E5000 ; sets maximum accelerations, mm/sec^2
M203 X200 Y200 Z12 E120 ; sets maximum feedrates, mm/sec
M204 P1250 R1250 T1250 ; sets acceleration (P, T) and retract acceleration (R), mm/sec^2
M205 X8.00 Y8.00 Z0.40 E4.50 ; sets the jerk limits, mm/sec
M205 S0 T0 ; sets the minimum extruding and travel feed rate, mm/sec
M107
;TYPE:Custom
M862.3 P "MK3S" ; printer model check
M862.1 P0.4 ; nozzle diameter check
M115 U3.9.3 ; tell printer latest fw version
G90 ; use absolute coordinates
M83 ; extruder relative mode
M104 S215 ; set extruder temp
M140 S60 ; set bed temp
M190 S60 ; wait for bed temp
M109 S215 ; wait for extruder temp
G28 W ; home all without mesh bed level
G80 ; mesh bed leveling
G1 Y-3.0 F1000.0 ; go outside print area
G92 E0.0
G1 X60.0 E9.0 F1000.0 ; intro line
G1 X100.0 E12.5 F1000.0 ; intro line
G92 E0.0
M221 S95

; Don't change E values below. Excessive value can damage the printer.

M907 E538 ; set extruder motor current
G21 ; set units to millimeters
G90 ; use absolute coordinates
M83 ; use relative distances for extrusion
M900 K0.05 ; Filament gcode LA 1.5
M900 K30 ; Filament gcode LA 1.0
;LAYER_CHANGE
;Z:0.2
;HEIGHT:0.2
;BEFORE_LAYER_CHANGE
G92 E0.0
;0.2


G1 E-0.80000 F2100.000
G1 Z0.400 F10800.000
;AFTER_LAYER_CHANGE
;0.2
G1 X70.058 Y45.618
G1 Z0.200
G1 E0.80000 F2100.000
M204 S1000
;TYPE:Skirt
;WIDTH:0.42
G1 F1200.000
G1 X70.984 Y45.423 E0.02966
G1 X179.004 Y45.423 E3.38690
G1 X179.892 Y45.597 E0.02837
G1 X180.651 Y46.089 E0.02837
G1 X181.170 Y46.830 E0.02837
G1 X181.375 Y47.711 E0.02837
G1 X181.377 Y102.008 E1.70242
G1 X181.180 Y102.948 E0.03013
G1 X180.755 Y103.603 E0.02449
G1 X129.220 Y159.829 E2.39140
M73 Q0 S78
G1 X128.437 Y160.373 E0.02989
G1 X127.504 Y160.566 E0.02989
G1 X71.372 Y160.566 E1.75997
G1 X70.503 Y160.391 E0.02778
G1 X69.756 Y159.908 E0.02790
G1 X69.227 Y159.155 E0.02884
G1 X69.022 Y158.255 E0.02896
G1 X68.623 Y119.009 E1.23059
G1 X68.623 Y47.777 E2.23342
G1 X68.798 Y46.905 E0.02790
G1 X69.281 Y46.158 E0.02790
G1 X70.009 Y45.652 E0.02778
; printing object test_fit-thumb.stl id:1 copy 0
;WIPE_START
G1 F8640.000
G1 X70.984 Y45.423 E-0.23123
G1 X73.274 Y45.423 E-0.52877
;WIPE_END
G1 E-0.04000 F2100.000
G1 Z0.600 F10800.000
G1 X92.812 Y123.402
G1 Z0.200
G1 E0.80000 F2100.000
;TYPE:Perimeter
G1 F1200.000
G1 X108.186 Y123.402 E0.48205
G1 X108.186 Y138.776 E0.48205
G1 X92.812 Y138.776 E0.48205
G1 X92.812 Y123.462 E0.48016
G1 X93.189 Y123.779 F10800.000
;TYPE:External perimeter
G1 F1200.000
G1 X107.809 Y123.779 E0.45840
G1 X107.809 Y138.399 E0.45840
G1 X93.189 Y138.399 E0.45840
G1 X93.189 Y123.839 E0.45652
G1 X93.085 Y123.393 F10800.000
;WIPE_START
G1 F8640.000
G1 X96.480 Y123.826 E-0.76000
;WIPE_END
G1 E-0.04000 F2100.000
G1 Z0.600 F10800.000
G1 X90.186 Y123.402
G1 Z0.200
G1 E0.80000 F2100.000
;TYPE:Perimeter
G1 F1200.000
G1 X90.186 Y138.776 E0.48205
G1 X74.812 Y138.776 E0.48205
G1 X74.812 Y123.402 E0.48205
G1 X90.126 Y123.402 E0.48016
M73 P0 R77
G1 X89.809 Y123.779 F10800.000
;TYPE:External perimeter
G1 F1200.000
G1 X89.809 Y138.399 E0.45840
G1 X75.189 Y138.399 E0.45840
G1 X75.189 Y123.779 E0.45840
G1 X89.749 Y123.779 E0.45652
G1 X90.195 Y123.676 F10800.000
;WIPE_START
G1 F8640.000
G1 X89.762 Y127.070 E-0.76000
;WIPE_END
G1 E-0.04000 F2100.000
G1 Z0.600 F10800.000
G1 X110.812 Y140.402
G1 Z0.200
G1 E0.80000 F2100.000
;TYPE:Perimeter
G1 F1200.000
G1 X126.186 Y140.402 E0.48205
G1 X126.186 Y155.776 E0.48205
G1 X110.812 Y155.776 E0.48205
G1 X110.812 Y140.462 E0.48016
G1 X111.189 Y140.779 F10800.000
;TYPE:External perimeter
G1 F1200.000
G1 X125.809 Y140.779 E0.45840
G1 X125.809 Y155.399 E0.45840
G1 X111.189 Y155.399 E0.45840
M73 P1 R77
M73 Q1 S78
G1 X111.189 Y140.839 E0.45652
G1 X111.085 Y140.393 F10800.000
;WIPE_START
G1 F8640.000
G1 X114.480 Y140.826 E-0.76000
;WIPE_END
G1 E-0.04000 F2100.000
G1 Z0.600 F10800.000
G1 X92.812 Y155.776
G1 Z0.200
G1 E0.80000 F2100.000
;TYPE:Perimeter
G1 F1200.000
G1 X92.812 Y140.402 E0.48205
G1 X108.186 Y140.402 E0.48205
G1 X108.186 Y155.776 E0.48205
G1 X92.872 Y155.776 E0.48016
G1 X93.189 Y155.399 F10800.000
;TYPE:External perimeter
G1 F1200.000
G1 X93.189 Y140.779 E0.45840
G1 X107.809 Y140.779 E0.45840
G1 X107.809 Y155.399 E0.45840
G1 X93.249 Y155.399 E0.45652
G1 X92.802 Y155.503 F10800.000
;WIPE_START
G1 F8640.000
G1 X93.235 Y152.108 E-0.76000
;WIPE_END
G1 E-0.04000 F2100.000
G1 Z0.600 F10800.000
G1 X74.812 Y155.776
G1 Z0.200
G1 E0.80000 F2100.000
;TYPE:Perimeter
G1 F1200.000
G1 X74.812 Y140.402 E0.48205
G1 X90.186 Y140.402 E0.48205
G1 X90.186 Y155.776 E0.48205
G1 X74.872 Y155.776 E0.48016
G1 X75.189 Y155.399 F10800.000
;TYPE:External perimeter
G1 F1200.000
G1 X75.189 Y140.779 E0.45840
G1 X89.809 Y140.779 E0.45840
G1 X89.809 Y155.399 E0.45840
G1 X75.249 Y155.399 E0.45652
G1 X74.802 Y155.503 F10800.000
;WIPE_START
G1 F8640.000
G1 X75.235 Y152.108 E-0.76000
;WIPE_END
G1 E-0.04000 F2100.000
G1 Z0.600 F10800.000
G1 X110.812 Y140.376
G1 Z0.200
G1 E0.80000 F2100.000
;TYPE:Perimeter
G1 F1200.000
G1 X126.712 Y140.376 E0.49853
G1 X126.712 Y157.402 E0.53383
G1 X72.186 Y157.402 E1.70962
G1 X72.186 Y121.776 E1.11702
G1 X110.812 Y121.776 E1.21109
G1 X110.812 Y140.316 E0.58131
G1 X111.189 Y139.999 F10800.000
;TYPE:External perimeter
G1 F1200.000
G1 X127.089 Y139.999 E0.49853
G1 X127.089 Y157.779 E0.55748
G1 X71.809 Y157.779 E1.73327
G1 X71.809 Y121.399 E1.14067
M73 Q1 S77
G1 X111.189 Y121.399 E1.23473
G1 X111.189 Y139.939 E0.58131
G1 X111.336 Y140.371 F10800.000
;WIPE_START
G1 F8640.000
G1 X114.480 Y139.951 E-0.76000
;WIPE_END
G1 E-0.04000 F2100.000
G1 Z0.600 F10800.000
G1 X126.449 Y140.565
G1 Z0.200
G1 E0.80000 F2100.000
;TYPE:Gap fill
;WIDTH:0.191682
G1 F1200.000
G1 X126.449 Y155.965 E0.19049
;WIPE_START
G1 F8640.000
G1 X126.449 Y152.673 E-0.76000
;WIPE_END
G1 E-0.04000 F2100.000
G1 Z0.600 F10800.000
G1 X109.933 Y121.889
G1 Z0.200
G1 E0.80000 F2100.000
;TYPE:Solid infill
;WIDTH:0.42145
G1 F1200.000
G1 X110.529 Y122.485 E0.02651
G1 X110.529 Y123.020 E0.01685
G1 X109.567 Y122.059 E0.04279
G1 X109.032 Y122.059 E0.01685
G1 X110.529 Y123.556 E0.06662
G1 X110.529 Y124.091 E0.01685
G1 X108.497 Y122.059 E0.09045
G1 X107.961 Y122.059 E0.01685
G1 X110.529 Y124.626 E0.11427
G1 X110.529 Y125.162 E0.01685
G1 X107.426 Y122.059 E0.13810
G1 X106.891 Y122.059 E0.01685
G1 X107.951 Y123.119 E0.04719
G1 X108.468 Y123.119 E0.01629
G1 X108.468 Y123.637 E0.01629
G1 X110.529 Y125.697 E0.09170
G1 X110.529 Y126.232 E0.01685
G1 X108.468 Y124.172 E0.09170
G1 X108.468 Y124.707 E0.01685
G1 X110.529 Y126.767 E0.09170
G1 X110.529 Y127.303 E0.01685
G1 X108.468 Y125.243 E0.09170
G1 X108.468 Y125.778 E0.01685
G1 X110.529 Y127.838 E0.09170
G1 X110.529 Y128.373 E0.01685
G1 X108.468 Y126.313 E0.09170
G1 X108.468 Y126.849 E0.01685
G1 X110.529 Y128.909 E0.09170
G1 X110.529 Y129.444 E0.01685
G1 X108.468 Y127.384 E0.09170
G1 X108.468 Y127.919 E0.01685
G1 X110.529 Y129.979 E0.09170
G1 X110.529 Y130.515 E0.01685
G1 X108.468 Y128.455 E0.09170
G1 X108.468 Y128.990 E0.01685
G1 X110.529 Y131.050 E0.09170
G1 X110.529 Y131.585 E0.01685
G1 X108.468 Y129.525 E0.09171
G1 X108.468 Y130.060 E0.01685
G1 X110.529 Y132.121 E0.09170
G1 X110.529 Y132.656 E0.01685
G1 X108.468 Y130.596 E0.09171
G1 X108.468 Y131.131 E0.01685
G1 X110.529 Y133.191 E0.09171
G1 X110.529 Y133.727 E0.01685
G1 X108.468 Y131.666 E0.09171
G1 X108.468 Y132.202 E0.01685
G1 X110.529 Y134.262 E0.09170
G1 X110.529 Y134.797 E0.01685
G1 X108.468 Y132.737 E0.09171
G1 X108.468 Y133.272 E0.01685
G1 X110.529 Y135.333 E0.09171
G1 X110.529 Y135.868 E0.01685
G1 X108.468 Y133.808 E0.09171
G1 X108.468 Y134.343 E0.01685
G1 X110.529 Y136.403 E0.09171
G1 X110.529 Y136.939 E0.01685
G1 X108.468 Y134.878 E0.09171
G1 X108.468 Y135.414 E0.01685
G1 X110.529 Y137.474 E0.09171
G1 X110.529 Y138.009 E0.01685
G1 X108.468 Y135.949 E0.09171
G1 X108.468 Y136.484 E0.01685
G1 X110.529 Y138.545 E0.09171
G1 X110.529 Y139.080 E0.01685
G1 X108.468 Y137.020 E0.09171
G1 X108.468 Y137.555 E0.01685
G1 X110.529 Y139.615 E0.09171
G1 X110.529 Y140.151 E0.01685
G1 X108.468 Y138.090 E0.09171
G1 X108.468 Y138.626 E0.01685
G1 X110.529 Y140.686 E0.09171
G1 X110.529 Y141.221 E0.01685
G1 X108.366 Y139.059 E0.09625
G1 X107.831 Y139.059 E0.01685
G1 X110.529 Y141.757 E0.12008
G1 X110.529 Y142.292 E0.01685
G1 X107.296 Y139.059 E0.14390
G1 X106.760 Y139.059 E0.01685
G1 X107.821 Y140.119 E0.04719
G1 X107.285 Y140.119 E0.01685
G1 X106.225 Y139.059 E0.04719
G1 X105.690 Y139.059 E0.01685
G1 X106.750 Y140.119 E0.04719
G1 X106.215 Y140.119 E0.01685
G1 X105.155 Y139.059 E0.04719
G1 X104.619 Y139.059 E0.01685
G1 X105.679 Y140.119 E0.04719
G1 X105.144 Y140.119 E0.01685
G1 X104.084 Y139.059 E0.04719
G1 X103.549 Y139.059 E0.01685
G1 X104.609 Y140.119 E0.04719
G1 X104.073 Y140.119 E0.01685
G1 X103.013 Y139.059 E0.04719
G1 X102.478 Y139.059 E0.01685
G1 X103.538 Y140.119 E0.04719
G1 X103.003 Y140.119 E0.01685
G1 X101.943 Y139.059 E0.04719
G1 X101.407 Y139.059 E0.01685
G1 X102.468 Y140.119 E0.04719
G1 X101.932 Y140.119 E0.01685
G1 X100.872 Y139.059 E0.04719
G1 X100.337 Y139.059 E0.01685
G1 X101.397 Y140.119 E0.04719
G1 X100.862 Y140.119 E0.01685
G1 X99.801 Y139.059 E0.04719
G1 X99.266 Y139.059 E0.01685
G1 X100.326 Y140.119 E0.04719
G1 X99.791 Y140.119 E0.01685
G1 X98.731 Y139.059 E0.04719
G1 X98.195 Y139.059 E0.01685
G1 X99.256 Y140.119 E0.04719
G1 X98.720 Y140.119 E0.01685
G1 X97.660 Y139.059 E0.04719
G1 X97.125 Y139.059 E0.01685
G1 X98.185 Y140.119 E0.04719
G1 X97.650 Y140.119 E0.01685
G1 X96.589 Y139.059 E0.04719
G1 X96.054 Y139.059 E0.01685
G1 X97.114 Y140.119 E0.04719
G1 X96.579 Y140.119 E0.01685
G1 X95.519 Y139.059 E0.04719
G1 X94.983 Y139.059 E0.01685
G1 X96.044 Y140.119 E0.04719
G1 X95.508 Y140.119 E0.01685
G1 X94.448 Y139.059 E0.04719
G1 X93.913 Y139.059 E0.01685
G1 X94.973 Y140.119 E0.04719
G1 X94.438 Y140.119 E0.01685
G1 X93.208 Y138.889 E0.05475
;WIPE_START
G1 F8640.000
G1 X94.438 Y140.119 E-0.40163
G1 X94.973 Y140.119 E-0.12361
G1 X94.254 Y139.400 E-0.23476
;WIPE_END
G1 E-0.04000 F2100.000
G1 Z0.600 F10800.000
G1 X108.299 Y140.597
G1 Z0.200
G1 E0.80000 F2100.000
G1 F1200.000
G1 X110.529 Y142.827 E0.09926
G1 X110.529 Y143.362 E0.01685
G1 X108.468 Y141.302 E0.09171
G1 X108.468 Y141.838 E0.01685
G1 X110.529 Y143.898 E0.09171
G1 X110.529 Y144.433 E0.01685
G1 X108.468 Y142.373 E0.09171
M73 P2 R77
G1 X108.468 Y142.908 E0.01685
G1 X110.529 Y144.968 E0.09171
M73 Q2 S77
G1 X110.529 Y145.504 E0.01685
G1 X108.468 Y143.444 E0.09171
G1 X108.468 Y143.979 E0.01685
G1 X110.529 Y146.039 E0.09171
G1 X110.529 Y146.574 E0.01685
G1 X108.468 Y144.514 E0.09171
G1 X108.468 Y145.049 E0.01685
G1 X110.529 Y147.110 E0.09171
G1 X110.529 Y147.645 E0.01685
G1 X108.468 Y145.585 E0.09171
G1 X108.468 Y146.120 E0.01685
G1 X110.529 Y148.180 E0.09171
G1 X110.529 Y148.716 E0.01685
G1 X108.468 Y146.655 E0.09171
G1 X108.468 Y147.191 E0.01685
G1 X110.529 Y149.251 E0.09171
G1 X110.529 Y149.786 E0.01685
G1 X108.468 Y147.726 E0.09171
G1 X108.468 Y148.261 E0.01685
G1 X110.529 Y150.322 E0.09171
G1 X110.529 Y150.857 E0.01685
G1 X108.468 Y148.797 E0.09171
G1 X108.468 Y149.332 E0.01685
G1 X110.529 Y151.392 E0.09171
G1 X110.529 Y151.928 E0.01685
G1 X108.468 Y149.867 E0.09171
G1 X108.468 Y150.403 E0.01685
G1 X110.529 Y152.463 E0.09171
G1 X110.529 Y152.998 E0.01685
G1 X108.468 Y150.938 E0.09171
G1 X108.468 Y151.473 E0.01685
G1 X110.529 Y153.534 E0.09171
G1 X110.529 Y154.069 E0.01685
G1 X108.468 Y152.009 E0.09171
G1 X108.468 Y152.544 E0.01685
G1 X110.529 Y154.604 E0.09171
G1 X110.529 Y155.140 E0.01685
G1 X108.299 Y152.910 E0.09926
;WIPE_START
G1 F8640.000
G1 X110.529 Y155.140 E-0.72817
G1 X110.529 Y155.002 E-0.03183
;WIPE_END
G1 E-0.04000 F2100.000
G1 Z0.600 F10800.000
G1 X126.598 Y156.756
G1 Z0.200
G1 E0.80000 F2100.000
G1 F1200.000
G1 X125.902 Y156.059 E0.03101
G1 X125.366 Y156.059 E0.01685
G1 X126.427 Y157.119 E0.04719
G1 X125.891 Y157.119 E0.01685
G1 X124.831 Y156.059 E0.04719
M73 P2 R76
G1 X124.296 Y156.059 E0.01685
G1 X125.356 Y157.119 E0.04719
G1 X124.821 Y157.119 E0.01685
G1 X123.760 Y156.059 E0.04719
G1 X123.225 Y156.059 E0.01685
G1 X124.285 Y157.119 E0.04719
G1 X123.750 Y157.119 E0.01685
G1 X122.690 Y156.059 E0.04719
G1 X122.155 Y156.059 E0.01685
G1 X123.215 Y157.119 E0.04719
G1 X122.679 Y157.119 E0.01685
G1 X121.619 Y156.059 E0.04719
G1 X121.084 Y156.059 E0.01685
G1 X122.144 Y157.119 E0.04719
G1 X121.609 Y157.119 E0.01685
G1 X120.549 Y156.059 E0.04719
G1 X120.013 Y156.059 E0.01685
G1 X121.073 Y157.119 E0.04719
G1 X120.538 Y157.119 E0.01685
G1 X119.478 Y156.059 E0.04719
G1 X118.943 Y156.059 E0.01685
G1 X120.003 Y157.119 E0.04719
G1 X119.468 Y157.119 E0.01685
G1 X118.407 Y156.059 E0.04719
G1 X117.872 Y156.059 E0.01685
G1 X118.932 Y157.119 E0.04719
G1 X118.397 Y157.119 E0.01685
G1 X117.337 Y156.059 E0.04719
G1 X116.801 Y156.059 E0.01685
G1 X117.862 Y157.119 E0.04719
G1 X117.326 Y157.119 E0.01685
G1 X116.266 Y156.059 E0.04719
G1 X115.731 Y156.059 E0.01685
G1 X116.791 Y157.119 E0.04719
G1 X116.256 Y157.119 E0.01685
G1 X115.195 Y156.059 E0.04719
G1 X114.660 Y156.059 E0.01685
G1 X115.720 Y157.119 E0.04719
G1 X115.185 Y157.119 E0.01685
G1 X114.125 Y156.059 E0.04719
G1 X113.589 Y156.059 E0.01685
G1 X114.650 Y157.119 E0.04719
G1 X114.114 Y157.119 E0.01685
G1 X113.054 Y156.059 E0.04719
G1 X112.519 Y156.059 E0.01685
G1 X113.579 Y157.119 E0.04719
G1 X113.044 Y157.119 E0.01685
G1 X111.983 Y156.059 E0.04719
G1 X111.448 Y156.059 E0.01685
G1 X112.508 Y157.119 E0.04719
G1 X111.973 Y157.119 E0.01685
G1 X110.913 Y156.059 E0.04719
G1 X110.529 Y156.059 E0.01209
G1 X110.529 Y155.675 E0.01209
G1 X108.468 Y153.615 E0.09171
G1 X108.468 Y154.150 E0.01685
G1 X111.438 Y157.119 E0.13217
G1 X110.902 Y157.119 E0.01685
G1 X108.468 Y154.685 E0.10834
G1 X108.468 Y155.221 E0.01685
G1 X110.367 Y157.119 E0.08451
G1 X109.832 Y157.119 E0.01685
G1 X108.468 Y155.756 E0.06068
G1 X108.468 Y156.059 E0.00954
G1 X108.236 Y156.059 E0.00731
G1 X109.296 Y157.119 E0.04719
G1 X108.761 Y157.119 E0.01685
G1 X107.701 Y156.059 E0.04719
G1 X107.165 Y156.059 E0.01685
G1 X108.226 Y157.119 E0.04719
G1 X107.690 Y157.119 E0.01685
G1 X106.630 Y156.059 E0.04719
G1 X106.095 Y156.059 E0.01685
G1 X107.155 Y157.119 E0.04719
G1 X106.620 Y157.119 E0.01685
G1 X105.560 Y156.059 E0.04719
G1 X105.024 Y156.059 E0.01685
G1 X106.084 Y157.119 E0.04719
G1 X105.549 Y157.119 E0.01685
G1 X104.489 Y156.059 E0.04719
G1 X103.954 Y156.059 E0.01685
G1 X105.014 Y157.119 E0.04719
G1 X104.478 Y157.119 E0.01685
G1 X103.418 Y156.059 E0.04719
G1 X102.883 Y156.059 E0.01685
G1 X103.943 Y157.119 E0.04719
G1 X103.408 Y157.119 E0.01685
G1 X102.348 Y156.059 E0.04719
G1 X101.812 Y156.059 E0.01685
G1 X102.873 Y157.119 E0.04719
G1 X102.337 Y157.119 E0.01685
G1 X101.277 Y156.059 E0.04719
G1 X100.742 Y156.059 E0.01685
G1 X101.802 Y157.119 E0.04719
G1 X101.267 Y157.119 E0.01685
G1 X100.206 Y156.059 E0.04719
G1 X99.671 Y156.059 E0.01685
G1 X100.731 Y157.119 E0.04719
G1 X100.196 Y157.119 E0.01685
G1 X99.136 Y156.059 E0.04719
G1 X98.600 Y156.059 E0.01685
G1 X99.661 Y157.119 E0.04719
G1 X99.125 Y157.119 E0.01685
G1 X98.065 Y156.059 E0.04719
G1 X97.530 Y156.059 E0.01685
G1 X98.590 Y157.119 E0.04719
G1 X98.055 Y157.119 E0.01685
G1 X96.994 Y156.059 E0.04719
G1 X96.459 Y156.059 E0.01685
G1 X97.519 Y157.119 E0.04719
G1 X96.984 Y157.119 E0.01685
G1 X95.924 Y156.059 E0.04719
G1 X95.388 Y156.059 E0.01685
G1 X96.449 Y157.119 E0.04719
G1 X95.913 Y157.119 E0.01685
G1 X94.853 Y156.059 E0.04719
G1 X94.318 Y156.059 E0.01685
G1 X95.378 Y157.119 E0.04719
G1 X94.843 Y157.119 E0.01685
G1 X93.782 Y156.059 E0.04719
G1 X93.247 Y156.059 E0.01685
G1 X94.477 Y157.289 E0.05475
;WIPE_START
G1 F8640.000
G1 X93.247 Y156.059 E-0.40163
G1 X93.782 Y156.059 E-0.12361
G1 X94.501 Y156.778 E-0.23476
;WIPE_END
G1 E-0.04000 F2100.000
G1 Z0.600 F10800.000
G1 X107.585 Y123.289
G1 Z0.200
G1 E0.80000 F2100.000
